cached_logos/emissary-ingress.svg

<svg xmlns="http://www.w3.org/2000/svg" role="img" viewBox="-29.98 -29.98 1558.96 476.96"><title>Emissary-Ingress logo</title><mask id="a" width="418" height="418" x="0" y="0" maskUnits="userSpaceOnUse"><path fill="#fff" d="M208.933 417.933c115.39 0 208.933-93.542 208.933-208.933C417.866 93.6097 324.323.06726 208.933.06726 93.5424.06726 0 93.6097 0 209c0 115.391 93.5424 208.933 208.933 208.933z"/></mask><g mask="url(#a)"><path fill="#fff" d="M417.865 209C417.865 97.1841 320.748.06702 208.932.06702 97.1168.06732 0 97.1847 0 209c0 111.816 97.117 208.933 208.933 208.933 111.815 0 208.932-97.118 208.932-208.933z"/><path fill="#272733" d="M209.101 87.1935c-77.088 0-152.1781 45.6535-152.1781 136.9605 0 55.536 28.18 75.798 28.18 112.271 0 36.472-4.873 32.413-4.873 32.413s45.4671 45.129 128.8711 45.129c83.405 0 127.698-45.129 127.698-45.129s-8.546 4.059-8.546-28.361c0-36.472 33.027-64.84 33.027-116.323 0-91.307-75.091-136.9605-152.179-136.9605z"/><path fill="#fff" d="M240.923 244.907l-29.052 58.104v-71.938c13.834 0 29.052 13.834 29.052 13.834zm-59.49 0s16.601-13.834 30.435-13.834v71.939l-30.435-58.105zm108.092-13.525c-23.068 13.024-65.08-17.29-65.08-17.29 11.685-11.507 70.955-69.211 83.525-47.162 12.882 22.568 4.622 51.427-18.445 64.452zm-157.167-1.154c-22.868-13.353-30.699-42.326-17.489-64.709 12.906-21.877 71.299 36.72 82.826 48.389 0 0-42.469 29.687-65.337 16.32z"/><circle cx="263.031" cy="202.496" r="15.692" fill="#272733"/><circle cx="160.968" cy="202.496" r="15.692" fill="#272733"/><path fill="#272733" d="M276.892 100.442c13.232-9.2673 21.573-22.1042 19.368-39.9382-21.365-3.939-47.334 18.8793-63.639 32.4428-3.008-.1529-8.02-.4334-11.067-.4461 22.117-24.6158 43.028-54.0502 19.368-54.3051-17.821-.1913-32.249 23.5577-44.27 47.1791 10.402-27.178 16.25-56.6634-13.834-51.5516-29.817 5.0608-14.33 38.3833-5.534 64.0953l99.608 2.5238z"/><path fill="#272733" fill-rule="evenodd" d="M208.73 14.4385c-107.342 0-194.3593 87.0175-194.3593 194.3595 0 107.341 87.0173 194.359 194.3593 194.359 107.341 0 194.359-87.018 194.359-194.359 0-107.342-87.018-194.3595-194.359-194.3595zM-1.83936 208.798C-1.83936 92.5035 92.4357-1.77148 208.73-1.77148c116.294 0 210.569 94.27498 210.569 210.56948 0 116.294-94.275 210.569-210.569 210.569-116.2943 0-210.56936-94.275-210.56936-210.569z" clip-rule="evenodd"/></g><path fill="#272733" d="M507.021 167.938h82.201v-23.141h-53.707v-24.234h49.505V97.3648h-49.505V73.1879h53.707V50.0472h-82.201V167.938zm122.74-117.8908V167.938h27.745V95.1198h.979l28.322 72.0702h17.729l28.322-71.6673h.978v72.4153h27.746V50.0472h-35.287l-29.933 72.9908h-1.381l-29.934-72.9908h-35.286zm200.782 0h-28.494V167.938h28.494V50.0472zm104.305 35.3443h27.286c-.231-22.047-17.788-36.9561-45.188-36.9561-26.94 0-46.339 14.6788-46.166 36.6107-.058 17.9019 12.491 27.9759 32.869 32.6389l12.318 2.878c12.952 2.993 18.766 6.505 18.881 13.125-.115 7.195-6.85 12.203-18.305 12.203-12.606 0-20.896-5.871-21.529-17.211h-27.285c.345 27.573 19.514 40.755 49.159 40.755 29.358 0 46.742-13.297 46.858-35.69-.116-18.823-12.837-30.336-36.093-35.4592l-10.131-2.3026c-10.707-2.3025-17.5-5.8715-17.27-12.8943.058-6.4471 5.584-11.1098 16.636-11.1098 11.11 0 17.212 5.008 17.96 13.4124zm129.702 0h27.29c-.23-22.047-17.79-36.9561-45.19-36.9561-26.94 0-46.34 14.6788-46.16 36.6107-.06 17.9019 12.49 27.9759 32.86 32.6389l12.32 2.878c12.95 2.993 18.77 6.505 18.88 13.125-.11 7.195-6.85 12.203-18.3 12.203-12.61 0-20.9-5.871-21.53-17.211h-27.286c.346 27.573 19.516 40.755 49.156 40.755 29.36 0 46.75-13.297 46.86-35.69-.11-18.823-12.84-30.336-36.09-35.4592l-10.13-2.3026c-10.71-2.3025-17.5-5.8715-17.27-12.8943.06-6.4471 5.58-11.1098 16.63-11.1098 11.11 0 17.22 5.008 17.96 13.4124zm87.85 82.5465l7.77-24.752h40.69l7.78 24.752h30.62l-39.78-117.8908h-37.93l-39.78 117.8908h30.63zm14.56-46.396l13.07-41.7918h.92l13.12 41.7918h-27.11zm107.69 46.396h28.49v-40.352h14.62l21.53 40.352h31.09l-24.47-44.9c12.95-5.871 20.44-17.442 20.44-33.7322 0-24.2344-16.52-39.2586-43-39.2586h-48.7V167.938zm28.49-62.802V73.0152h14.05c12.78 0 19.63 5.3535 19.63 16.2906 0 10.9372-6.85 15.8302-19.63 15.8302h-14.05zm82.31-55.0888l43.11 78.5168v39.374h28.32v-39.374L1500 50.0472h-31.83l-24.93 49.3323h-1.03l-24.93-49.3323h-31.83zM532.91 195.785h-25.792v170.942h25.792V195.785zm175.532 0h-25.541V321.32h-1.586l-86.973-125.535H570.47v170.942h25.792V241.358h1.586l86.89 125.369h23.704V195.785zm153.31 54.003h26.459c-5.759-33.303-34.222-56.34-71.114-56.34-44.238 0-76.54 33.303-76.54 87.891 0 54.087 31.384 87.725 77.708 87.725 41.484 0 71.115-27.211 71.115-70.363v-19.448h-67.192v21.284h42.235c-.584 27.544-18.78 44.989-46.158 44.989-30.132 0-52.084-22.787-52.084-64.354 0-41.4 22.119-64.186 51.082-64.186 22.704 0 38.062 12.52 44.489 32.802zm60.368 116.939h25.791v-64.688h36.726l34.723 64.688h29.38l-37.89-69.195c20.95-7.762 31.38-25.207 31.38-48.161 0-31.467-19.53-53.586-59.179-53.586H922.12v170.942zm25.791-86.89v-61.933h32.386c25.453 0 35.973 12.103 35.973 31.467 0 19.281-10.52 30.466-35.639 30.466h-32.72zm125.699 86.89h108.18v-22.203h-82.38V292.19h75.78v-22.119h-75.78v-52.084h81.38v-22.202h-107.18v170.942zm234.86-126.036h24.87c-.75-27.378-24.95-47.243-59.67-47.243-34.31 0-60.6 19.615-60.6 49.079 0 23.788 17.02 37.727 44.49 45.156l20.19 5.509c18.28 4.841 32.39 10.851 32.39 26.042 0 16.693-15.94 27.711-37.89 27.711-19.87 0-36.4-8.848-37.9-27.461h-25.87c1.67 30.967 25.62 50.081 63.93 50.081 40.15 0 63.27-21.118 63.27-50.081 0-30.8-27.46-42.735-49.16-48.077l-16.69-4.341c-13.36-3.422-31.14-9.682-31.05-26.042 0-14.523 13.27-25.29 34.3-25.29 19.62 0 33.55 9.181 35.39 24.957zm151.27 0h24.87c-.75-27.378-24.96-47.243-59.68-47.243-34.31 0-60.6 19.615-60.6 49.079 0 23.788 17.03 37.727 44.49 45.156l20.2 5.509c18.28 4.841 32.38 10.851 32.38 26.042 0 16.693-15.94 27.711-37.89 27.711-19.86 0-36.39-8.848-37.89-27.461h-25.88c1.67 30.967 25.63 50.081 63.94 50.081 40.15 0 63.27-21.118 63.27-50.081 0-30.8-27.46-42.735-49.17-48.077l-16.69-4.341c-13.35-3.422-31.13-9.682-31.05-26.042 0-14.523 13.27-25.29 34.31-25.29 19.61 0 33.55 9.181 35.39 24.957z"/></svg>

<svg viewBox="0 0 1500 418" fill="none" xmlns="http://www.w3.org/2000/svg">
<mask id="emissary-horizontal-mask-color" mask-type="alpha" maskUnits="userSpaceOnUse" x="0" y="0" width="418" height="418">
<path d="M208.933 417.933C324.323 417.933 417.866 324.391 417.866 209C417.866 93.6097 324.323 0.0672607 208.933 0.0672607C93.5424 0.0672607 0 93.6097 0 209C0 324.391 93.5424 417.933 208.933 417.933Z" fill="white"/>
</mask>
<g mask="url(#emissary-horizontal-mask-color)">
<path d="M417.865 209C417.865 97.1841 320.748 0.0670166 208.932 0.0670166C97.1168 0.067312 0 97.1847 0 209C0 320.816 97.117 417.933 208.933 417.933C320.748 417.933 417.865 320.815 417.865 209Z" fill="white"/>
<path d="M209.101 87.1935C132.013 87.1935 56.9229 132.847 56.9229 224.154C56.9229 279.69 85.1029 299.952 85.1029 336.425C85.1029 372.897 80.2299 368.838 80.2299 368.838C80.2299 368.838 125.697 413.967 209.101 413.967C292.506 413.967 336.799 368.838 336.799 368.838C336.799 368.838 328.253 372.897 328.253 340.477C328.253 304.005 361.28 275.637 361.28 224.154C361.28 132.847 286.189 87.1935 209.101 87.1935Z" fill="#272733"/>
<path d="M240.923 244.907L211.871 303.011V231.073C225.705 231.073 240.923 244.907 240.923 244.907Z" fill="white"/>
<path d="M181.433 244.907C181.433 244.907 198.034 231.073 211.868 231.073V303.012L181.433 244.907Z" fill="white"/>
<path d="M289.525 231.382C266.457 244.406 224.445 214.092 224.445 214.092C236.13 202.585 295.4 144.881 307.97 166.93C320.852 189.498 312.592 218.357 289.525 231.382Z" fill="white"/>
<path d="M132.358 230.228C109.49 216.875 101.659 187.902 114.869 165.519C127.775 143.642 186.168 202.239 197.695 213.908C197.695 213.908 155.226 243.595 132.358 230.228Z" fill="white"/>
<circle cx="263.031" cy="202.496" r="15.6921" fill="#272733"/>
<circle cx="160.968" cy="202.496" r="15.6921" fill="#272733"/>
<path d="M276.892 100.442C290.124 91.1747 298.465 78.3378 296.26 60.5038C274.895 56.5648 248.926 79.3831 232.621 92.9466C229.613 92.7937 224.601 92.5132 221.554 92.5005C243.671 67.8847 264.582 38.4503 240.922 38.1954C223.101 38.0041 208.673 61.7531 196.652 85.3745C207.054 58.1965 212.902 28.7111 182.818 33.8229C153.001 38.8837 168.488 72.2062 177.284 97.9182L276.892 100.442Z" fill="#272733"/>
<path fill-rule="evenodd" clip-rule="evenodd" d="M208.73 14.4385C101.388 14.4385 14.3707 101.456 14.3707 208.798C14.3707 316.139 101.388 403.157 208.73 403.157C316.071 403.157 403.089 316.139 403.089 208.798C403.089 101.456 316.071 14.4385 208.73 14.4385ZM-1.83936 208.798C-1.83936 92.5035 92.4357 -1.77148 208.73 -1.77148C325.024 -1.77148 419.299 92.5035 419.299 208.798C419.299 325.092 325.024 419.367 208.73 419.367C92.4357 419.367 -1.83936 325.092 -1.83936 208.798Z" fill="#272733"/>
</g>
<path d="M507.021 167.938H589.222V144.797H535.515V120.563H585.02V97.3648H535.515V73.1879H589.222V50.0472H507.021V167.938Z" fill="#272733"/>
<path d="M629.761 50.0472V167.938H657.506V95.1198H658.485L686.807 167.19H704.536L732.858 95.5227H733.836V167.938H761.582V50.0472H726.295L696.362 123.038H694.981L665.047 50.0472H629.761Z" fill="#272733"/>
<path d="M830.543 50.0472H802.049V167.938H830.543V50.0472Z" fill="#272733"/>
<path d="M934.848 85.3915H962.134C961.903 63.3445 944.346 48.4354 916.946 48.4354C890.006 48.4354 870.607 63.1142 870.78 85.0461C870.722 102.948 883.271 113.022 903.649 117.685L915.967 120.563C928.919 123.556 934.733 127.068 934.848 133.688C934.733 140.883 927.998 145.891 916.543 145.891C903.937 145.891 895.647 140.02 895.014 128.68H867.729C868.074 156.253 887.243 169.435 916.888 169.435C946.246 169.435 963.63 156.138 963.746 133.745C963.63 114.922 950.909 103.409 927.653 98.2858L917.522 95.9832C906.815 93.6807 900.022 90.1117 900.252 83.0889C900.31 76.6418 905.836 71.9791 916.888 71.9791C927.998 71.9791 934.1 76.9871 934.848 85.3915Z" fill="#272733"/>
<path d="M1064.55 85.3915H1091.84C1091.61 63.3445 1074.05 48.4354 1046.65 48.4354C1019.71 48.4354 1000.31 63.1142 1000.49 85.0461C1000.43 102.948 1012.98 113.022 1033.35 117.685L1045.67 120.563C1058.62 123.556 1064.44 127.068 1064.55 133.688C1064.44 140.883 1057.7 145.891 1046.25 145.891C1033.64 145.891 1025.35 140.02 1024.72 128.68H997.434C997.78 156.253 1016.95 169.435 1046.59 169.435C1075.95 169.435 1093.34 156.138 1093.45 133.745C1093.34 114.922 1080.61 103.409 1057.36 98.2858L1047.23 95.9832C1036.52 93.6807 1029.73 90.1117 1029.96 83.0889C1030.02 76.6418 1035.54 71.9791 1046.59 71.9791C1057.7 71.9791 1063.81 76.9871 1064.55 85.3915Z" fill="#272733"/>
<path d="M1152.4 167.938L1160.17 143.186H1200.86L1208.64 167.938H1239.26L1199.48 50.0472H1161.55L1121.77 167.938H1152.4ZM1166.96 121.542L1180.03 79.7502H1180.95L1194.07 121.542H1166.96Z" fill="#272733"/>
<path d="M1274.65 167.938H1303.14V127.586H1317.76L1339.29 167.938H1370.38L1345.91 123.038C1358.86 117.167 1366.35 105.596 1366.35 89.3058C1366.35 65.0714 1349.83 50.0472 1323.35 50.0472H1274.65V167.938ZM1303.14 105.136V73.0152H1317.19C1329.97 73.0152 1336.82 78.3687 1336.82 89.3058C1336.82 100.243 1329.97 105.136 1317.19 105.136H1303.14Z" fill="#272733"/>
<path d="M1385.45 50.0472L1428.56 128.564V167.938H1456.88V128.564L1500 50.0472H1468.17L1443.24 99.3795H1442.21L1417.28 50.0472H1385.45Z" fill="#272733"/>
<path d="M532.91 195.785H507.118V366.727H532.91V195.785Z" fill="#272733"/>
<path d="M708.442 195.785H682.901V321.32H681.315L594.342 195.785H570.47V366.727H596.262V241.358H597.848L684.738 366.727H708.442V195.785Z" fill="#272733"/>
<path d="M861.752 249.788H888.211C882.452 216.485 853.989 193.448 817.097 193.448C772.859 193.448 740.557 226.751 740.557 281.339C740.557 335.426 771.941 369.064 818.265 369.064C859.749 369.064 889.38 341.853 889.38 298.701V279.253H822.188V300.537H864.423C863.839 328.081 845.643 345.526 818.265 345.526C788.133 345.526 766.181 322.739 766.181 281.172C766.181 239.772 788.3 216.986 817.263 216.986C839.967 216.986 855.325 229.506 861.752 249.788Z" fill="#272733"/>
<path d="M922.12 366.727H947.911V302.039H982.968C983.552 302.039 984.053 302.039 984.637 302.039L1019.36 366.727H1048.74L1010.85 297.532C1031.8 289.77 1042.23 272.325 1042.23 249.371C1042.23 217.904 1022.7 195.785 983.051 195.785H922.12V366.727ZM947.911 279.837V217.904H980.297C1005.75 217.904 1016.27 230.007 1016.27 249.371C1016.27 268.652 1005.75 279.837 980.631 279.837H947.911Z" fill="#272733"/>
<path d="M1073.61 366.727H1181.79V344.524H1099.41V292.19H1175.19V270.071H1099.41V217.987H1180.79V195.785H1073.61V366.727Z" fill="#272733"/>
<path d="M1308.47 240.691H1333.34C1332.59 213.313 1308.39 193.448 1273.67 193.448C1239.36 193.448 1213.07 213.063 1213.07 242.527C1213.07 266.315 1230.09 280.254 1257.56 287.683L1277.75 293.192C1296.03 298.033 1310.14 304.043 1310.14 319.234C1310.14 335.927 1294.2 346.945 1272.25 346.945C1252.38 346.945 1235.85 338.097 1234.35 319.484H1208.48C1210.15 350.451 1234.1 369.565 1272.41 369.565C1312.56 369.565 1335.68 348.447 1335.68 319.484C1335.68 288.684 1308.22 276.749 1286.52 271.407L1269.83 267.066C1256.47 263.644 1238.69 257.384 1238.78 241.024C1238.78 226.501 1252.05 215.734 1273.08 215.734C1292.7 215.734 1306.63 224.915 1308.47 240.691Z" fill="#272733"/>
<path d="M1459.74 240.691H1484.61C1483.86 213.313 1459.65 193.448 1424.93 193.448C1390.62 193.448 1364.33 213.063 1364.33 242.527C1364.33 266.315 1381.36 280.254 1408.82 287.683L1429.02 293.192C1447.3 298.033 1461.4 304.043 1461.4 319.234C1461.4 335.927 1445.46 346.945 1423.51 346.945C1403.65 346.945 1387.12 338.097 1385.62 319.484H1359.74C1361.41 350.451 1385.37 369.565 1423.68 369.565C1463.83 369.565 1486.95 348.447 1486.95 319.484C1486.95 288.684 1459.49 276.749 1437.78 271.407L1421.09 267.066C1407.74 263.644 1389.96 257.384 1390.04 241.024C1390.04 226.501 1403.31 215.734 1424.35 215.734C1443.96 215.734 1457.9 224.915 1459.74 240.691Z" fill="#272733"/>
</svg>
